!!!OTL-incipit: SEY NUR STILL, HAST LANG GESCHWIEGEN
!!!ARE: Europa, Mitteleuropa, Deutschland, Coburg
!!!SCT: Z0283
!!!TXL: @@DE
!!!YEM: Copyright 1995, estate of Helmut Schaffrath.
**kern	**text
*ICvox	*
*M4/4	*
*met(c|)	*
*k[f#c#g#]	*
*A:	*
!LO:TX:a:t=Aus dem Coburgſchen.	!
{8aL	Sey
8bJ	.
8cc#L	nur
8ddJ	.
=1	=1
4ee	ſtill,
4ee	haſt
8ff#L	lang
8gg#J	.
8aaL	ge-
8ff#J	.
=2	=2
8ff#L	-ſchwiegen,
8eeJ	.
8ee}	.
{8dd	die-
4.cc#	-weil
8dd	du
=3	=3
4ee	biſt
4ee	ſo
8ff#	hoch
8ee	hinauf
8dd	.
8cc#	ge-
=4	=4
4cc#	-ſtie-
4b}	-gen,
{8aL	Sey
8bJ	.
8cc#L	nur
8ddJ	.
=5	=5
4ee	ſtill,
4ee	haſt
8ff#L	lang
8gg#J	.
8aaL	ge-
8ff#J	.
=6	=6
8ff#L	-ſchwiegen,
8eeJ	.
8ee}	.
{8dd	die-
4.cc#	-weil
8dd	du
=7	=7
4ee	biſt
4ee	ſo
8ff#	hoch
8ee	hinauf
8dd	.
8cc#	ge-
=8	=8
4cc#	-ſtie-
4b	-gen,
2ryy}	.
=9	=9
{4.ee	d'weil
8cc#	du
4.dd	mich
8b	ſo
=10	=10
8cc#L	ſehr
8eeJ	.
4cc#	ver-
4b	-achtſt,
4r}	.
=11	=11
{8cc#	ja
8b	und
8cc#	mei-
8ee	-ne
8eeL	Treu-
8ddJ	.
4cc#	-heit,
=12	=12
8b	ja
8b	und
8cc#	mei-
8cc#	-ne
(8ddL	Treu-
8ff#J)	.
8ee	-heit
8dd	ſo-
=13	=13
4cc#	-gar
4b	auslachſt.
4a	.
4r}	.
=14	=14
{4.ee	d'weil
8cc#	du
4.dd	mich
8b	ſo
=15	=15
8cc#L	ſehr
8eeJ	.
4cc#	ver-
4b	-achtſt,
4r}	.
=16	=16
{8cc#	ja
8b	und
8cc#	mei-
8ee	-ne
8eeL	Treu-
8ddJ	.
4cc#	-heit,
=17	=17
8b	ja
8b	und
8cc#	mei-
8cc#	-ne
(8ddL	Treu-
8ff#J)	.
8ee	-heit
8dd	ſo-
=18	=18
4cc#	-gar
4b	auslachſt.
4a	.
4r}	.
==	==
!!!AGN: Lyrisches Lied, Romanze
!!!ONB: ESAC (Essen Associative Code) Database: ZUCCAL
!!!AMT: simple quadruple
!!!AIN: vox
!!!EED: Helmut Schaffrath
!!!EEV: 1.0
!!!GTL: IV. Lyrische Lieder.
!!!URL-scan: https://www.digitale-sammlungen.de/de/view/bsb11160571?page=512
!!!ENC: Anna Maria Matuszewska
!!!EEV: 2025/01/30
*-	*-
